SF_Symbols/sprinkler.and.droplets.svg

<?xml version="1.0" encoding="UTF-8"?>
<svg xmlns="http://www.w3.org/2000/svg" xmlns:xlink="http://www.w3.org/1999/xlink" width="24" height="24" viewBox="0 0 24 24" version="1.1">
<g id="surface1">
<path style=" stroke:none;fill-rule:nonzero;fill:rgb(100%,100%,100%);fill-opacity:1;" d="M 9.773438 11.953125 L 14.214844 11.953125 C 14.605469 11.953125 14.921875 11.828125 15.164062 11.578125 C 15.414062 11.328125 15.539062 11.011719 15.539062 10.628906 L 15.539062 9.808594 C 15.539062 9.175781 15.328125 8.660156 14.90625 8.261719 C 14.492188 7.855469 13.949219 7.652344 13.277344 7.652344 L 10.710938 7.652344 C 10.046875 7.652344 9.503906 7.855469 9.082031 8.261719 C 8.667969 8.660156 8.460938 9.175781 8.460938 9.808594 L 8.460938 10.628906 C 8.460938 11.011719 8.582031 11.328125 8.824219 11.578125 C 9.074219 11.828125 9.390625 11.953125 9.773438 11.953125 Z M 10.277344 10.488281 C 10.082031 10.488281 9.984375 10.386719 9.984375 10.183594 L 9.984375 9.808594 C 9.984375 9.566406 10.050781 9.390625 10.183594 9.28125 C 10.316406 9.171875 10.511719 9.117188 10.769531 9.117188 L 13.21875 9.117188 C 13.75 9.117188 14.015625 9.347656 14.015625 9.808594 L 14.015625 10.183594 C 14.015625 10.386719 13.914062 10.488281 13.710938 10.488281 Z M 9.785156 17.566406 L 14.214844 17.566406 C 14.605469 17.566406 14.921875 17.445312 15.164062 17.203125 C 15.414062 16.953125 15.539062 16.628906 15.539062 16.230469 L 15.539062 14.484375 C 15.539062 14.101562 15.414062 13.789062 15.164062 13.546875 C 14.921875 13.296875 14.605469 13.171875 14.214844 13.171875 L 9.785156 13.171875 C 9.394531 13.171875 9.074219 13.296875 8.824219 13.546875 C 8.582031 13.789062 8.460938 14.101562 8.460938 14.484375 L 8.460938 16.230469 C 8.460938 16.628906 8.582031 16.953125 8.824219 17.203125 C 9.074219 17.445312 9.394531 17.566406 9.785156 17.566406 Z M 10.230469 16.089844 C 10.027344 16.089844 9.925781 15.992188 9.925781 15.796875 L 9.925781 14.941406 C 9.925781 14.738281 10.027344 14.636719 10.230469 14.636719 L 13.769531 14.636719 C 13.972656 14.636719 14.074219 14.738281 14.074219 14.941406 L 14.074219 15.796875 C 14.074219 15.992188 13.972656 16.089844 13.769531 16.089844 Z M 10.007812 14.167969 L 11.578125 14.167969 L 11.578125 11.15625 L 10.007812 11.15625 Z M 12.421875 14.167969 L 13.992188 14.167969 L 13.992188 11.15625 L 12.421875 11.15625 Z M 9.773438 22.617188 L 11.34375 22.617188 L 11.34375 16.945312 L 9.773438 16.945312 Z M 12.65625 22.617188 L 14.226562 22.617188 L 14.226562 16.945312 L 12.65625 16.945312 Z M 2.636719 23.589844 L 21.363281 23.589844 C 21.613281 23.589844 21.832031 23.496094 22.019531 23.308594 C 22.207031 23.128906 22.300781 22.914062 22.300781 22.664062 C 22.300781 22.40625 22.207031 22.183594 22.019531 21.996094 C 21.832031 21.816406 21.613281 21.726562 21.363281 21.726562 L 2.636719 21.726562 C 2.386719 21.726562 2.167969 21.816406 1.980469 21.996094 C 1.792969 22.183594 1.699219 22.40625 1.699219 22.664062 C 1.699219 22.914062 1.792969 23.128906 1.980469 23.308594 C 2.167969 23.496094 2.386719 23.589844 2.636719 23.589844 Z M 3.1875 10.359375 C 3.1875 10.078125 3.089844 9.847656 2.894531 9.667969 C 2.707031 9.480469 2.484375 9.386719 2.226562 9.386719 C 1.953125 9.386719 1.722656 9.480469 1.535156 9.667969 C 1.347656 9.855469 1.253906 10.085938 1.253906 10.359375 C 1.253906 10.625 1.347656 10.851562 1.535156 11.039062 C 1.722656 11.21875 1.953125 11.308594 2.226562 11.308594 C 2.484375 11.308594 2.707031 11.21875 2.894531 11.039062 C 3.089844 10.851562 3.1875 10.625 3.1875 10.359375 Z M 6.878906 10.359375 C 6.878906 10.007812 6.753906 9.710938 6.503906 9.46875 C 6.261719 9.21875 5.96875 9.09375 5.625 9.09375 C 5.289062 9.09375 4.996094 9.21875 4.746094 9.46875 C 4.503906 9.710938 4.382812 10.007812 4.382812 10.359375 C 4.382812 10.695312 4.503906 10.984375 4.746094 11.226562 C 4.996094 11.46875 5.289062 11.589844 5.625 11.589844 C 5.96875 11.589844 6.261719 11.46875 6.503906 11.226562 C 6.753906 10.984375 6.878906 10.695312 6.878906 10.359375 Z M 5.449219 4.113281 C 5.644531 3.917969 5.742188 3.6875 5.742188 3.421875 C 5.742188 3.15625 5.648438 2.933594 5.460938 2.753906 C 5.273438 2.566406 5.042969 2.472656 4.769531 2.472656 C 4.503906 2.464844 4.277344 2.558594 4.089844 2.753906 C 3.902344 2.941406 3.808594 3.167969 3.808594 3.433594 C 3.808594 3.691406 3.90625 3.914062 4.101562 4.101562 C 4.28125 4.289062 4.503906 4.386719 4.769531 4.394531 C 5.035156 4.402344 5.261719 4.308594 5.449219 4.113281 Z M 8.0625 6.726562 C 8.3125 6.484375 8.433594 6.191406 8.425781 5.847656 C 8.425781 5.496094 8.304688 5.199219 8.0625 4.957031 C 7.828125 4.714844 7.535156 4.59375 7.183594 4.59375 C 6.839844 4.59375 6.546875 4.71875 6.304688 4.96875 C 6.0625 5.203125 5.941406 5.492188 5.941406 5.835938 C 5.941406 6.179688 6.0625 6.46875 6.304688 6.703125 C 6.546875 6.953125 6.839844 7.082031 7.183594 7.089844 C 7.535156 7.089844 7.828125 6.96875 8.0625 6.726562 Z M 12 2.355469 C 12.273438 2.355469 12.5 2.261719 12.679688 2.074219 C 12.859375 1.878906 12.949219 1.648438 12.949219 1.382812 C 12.949219 1.117188 12.855469 0.890625 12.667969 0.703125 C 12.488281 0.515625 12.265625 0.421875 12 0.421875 C 11.726562 0.421875 11.496094 0.515625 11.308594 0.703125 C 11.121094 0.890625 11.027344 1.117188 11.027344 1.382812 C 11.027344 1.648438 11.117188 1.878906 11.296875 2.074219 C 11.484375 2.261719 11.71875 2.355469 12 2.355469 Z M 12 6.046875 C 12.335938 6.046875 12.625 5.925781 12.867188 5.683594 C 13.109375 5.433594 13.230469 5.136719 13.230469 4.792969 C 13.230469 4.449219 13.109375 4.15625 12.867188 3.914062 C 12.625 3.664062 12.335938 3.539062 12 3.539062 C 11.648438 3.539062 11.351562 3.664062 11.109375 3.914062 C 10.867188 4.15625 10.746094 4.449219 10.746094 4.792969 C 10.746094 5.136719 10.867188 5.433594 11.109375 5.683594 C 11.351562 5.925781 11.648438 6.046875 12 6.046875 Z M 18.550781 4.113281 C 18.738281 4.308594 18.960938 4.402344 19.21875 4.394531 C 19.484375 4.386719 19.710938 4.289062 19.898438 4.101562 C 20.09375 3.914062 20.191406 3.691406 20.191406 3.433594 C 20.191406 3.167969 20.097656 2.941406 19.910156 2.753906 C 19.714844 2.558594 19.484375 2.464844 19.21875 2.472656 C 18.953125 2.472656 18.726562 2.566406 18.539062 2.753906 C 18.351562 2.933594 18.253906 3.15625 18.246094 3.421875 C 18.246094 3.6875 18.347656 3.917969 18.550781 4.113281 Z M 15.9375 6.726562 C 16.171875 6.96875 16.460938 7.089844 16.804688 7.089844 C 17.15625 7.082031 17.453125 6.953125 17.695312 6.703125 C 17.9375 6.46875 18.058594 6.179688 18.058594 5.835938 C 18.058594 5.492188 17.9375 5.203125 17.695312 4.96875 C 17.453125 4.71875 17.15625 4.59375 16.804688 4.59375 C 16.460938 4.59375 16.171875 4.714844 15.9375 4.957031 C 15.695312 5.199219 15.570312 5.496094 15.5625 5.847656 C 15.5625 6.191406 15.6875 6.484375 15.9375 6.726562 Z M 20.8125 10.359375 C 20.8125 10.625 20.90625 10.851562 21.09375 11.039062 C 21.289062 11.21875 21.515625 11.308594 21.773438 11.308594 C 22.046875 11.308594 22.277344 11.21875 22.464844 11.039062 C 22.652344 10.851562 22.746094 10.625 22.746094 10.359375 C 22.746094 10.085938 22.652344 9.855469 22.464844 9.667969 C 22.277344 9.480469 22.046875 9.386719 21.773438 9.386719 C 21.515625 9.386719 21.289062 9.480469 21.09375 9.667969 C 20.90625 9.847656 20.8125 10.078125 20.8125 10.359375 Z M 17.121094 10.359375 C 17.121094 10.695312 17.242188 10.984375 17.484375 11.226562 C 17.734375 11.46875 18.03125 11.589844 18.375 11.589844 C 18.710938 11.589844 19 11.46875 19.242188 11.226562 C 19.492188 10.984375 19.617188 10.695312 19.617188 10.359375 C 19.617188 10.007812 19.492188 9.710938 19.242188 9.46875 C 19 9.21875 18.710938 9.09375 18.375 9.09375 C 18.03125 9.09375 17.734375 9.21875 17.484375 9.46875 C 17.242188 9.710938 17.121094 10.007812 17.121094 10.359375 Z M 17.121094 10.359375 "/>
</g>
</svg>

<svg xmlns="http://www.w3.org/2000/svg" width="24" height="24"><path style="stroke:none;fill-rule:nonzero;fill:#fff;fill-opacity:1" d="M9.773 11.953h4.442c.39 0 .707-.125.95-.375.25-.25.374-.566.374-.95v-.82c0-.632-.21-1.148-.633-1.546-.414-.407-.957-.61-1.629-.61h-2.566c-.664 0-1.207.203-1.629.61-.414.398-.621.914-.621 1.547v.82c0 .383.121.7.363.95.25.25.567.374.95.374Zm.504-1.465c-.195 0-.293-.101-.293-.304v-.375c0-.243.067-.418.2-.528.132-.11.328-.164.586-.164h2.449c.531 0 .797.23.797.692v.375c0 .203-.102.304-.305.304Zm-.492 7.078h4.43c.39 0 .707-.12.95-.363.25-.25.374-.574.374-.973v-1.746c0-.382-.125-.695-.375-.937-.242-.25-.559-.375-.95-.375H9.786c-.39 0-.71.125-.96.375-.243.242-.364.555-.364.937v1.746c0 .399.121.723.363.973.25.242.57.363.961.363Zm.445-1.476c-.203 0-.304-.098-.304-.293v-.856c0-.203.101-.304.304-.304h3.54c.203 0 .304.101.304.304v.856c0 .195-.101.293-.304.293Zm-.222-1.922h1.57v-3.012h-1.57Zm2.414 0h1.57v-3.012h-1.57Zm-2.649 8.45h1.57v-5.673h-1.57Zm2.883 0h1.57v-5.673h-1.57Zm-10.02.972h18.727c.25 0 .485-.102.657-.281a.872.872 0 0 0 .28-.645.906.906 0 0 0-.28-.668.9.9 0 0 0-.657-.27H2.637c-.25 0-.469.09-.657.27a.906.906 0 0 0-.28.668c0 .25.093.465.28.645a.91.91 0 0 0 .657.28Zm.551-13.23a.894.894 0 0 0-.292-.692.9.9 0 0 0-.668-.281.959.959 0 0 0-.973.972c0 .266.094.493.281.68.188.18.418.27.692.27.257 0 .48-.09.668-.27a.902.902 0 0 0 .292-.68Zm3.692 0c0-.352-.125-.65-.375-.891a1.187 1.187 0 0 0-.879-.375c-.336 0-.629.125-.879.375-.242.242-.363.539-.363.89 0 .336.12.625.363.868.25.242.543.363.879.363.344 0 .637-.121.879-.363.25-.243.375-.532.375-.868Zm-1.43-6.247a.957.957 0 0 0 .293-.691.894.894 0 0 0-.281-.668.959.959 0 0 0-.691-.281.864.864 0 0 0-.68.28.92.92 0 0 0-.281.68c0 .258.097.481.293.669.18.187.402.285.668.293a.86.86 0 0 0 .68-.282Zm2.614 2.614c.242-.227.374-.547.363-.88 0-.35-.121-.648-.364-.89a1.182 1.182 0 0 0-.878-.363c-.344 0-.637.125-.88.375-.238.226-.37.539-.363.867 0 .344.122.633.364.867.242.25.535.379.879.387.351 0 .644-.121.878-.363ZM12 2.355c.273 0 .5-.093.68-.28a.988.988 0 0 0 .27-.692.932.932 0 0 0-.282-.68A.894.894 0 0 0 12 .422a.959.959 0 0 0-.691.281.932.932 0 0 0-.282.68c0 .265.09.496.27.691.187.188.441.29.703.281Zm0 3.692c.336 0 .625-.121.867-.363.242-.25.363-.547.363-.891s-.12-.637-.363-.879A1.162 1.162 0 0 0 12 3.54c-.352 0-.648.125-.89.375-.239.23-.368.55-.364.879 0 .344.121.64.363.89.243.243.54.364.891.364Zm6.55-1.934c.188.196.41.29.669.282.258-.004.5-.11.68-.293a.905.905 0 0 0 .292-.668.932.932 0 0 0-.28-.68.902.902 0 0 0-.692-.281.932.932 0 0 0-.68.28.935.935 0 0 0-.293.669c0 .265.102.496.305.691Zm-2.613 2.614c.235.242.524.363.868.363.351-.008.648-.137.89-.387.242-.234.364-.523.364-.867s-.122-.633-.364-.867a1.184 1.184 0 0 0-.89-.375c-.344 0-.633.12-.867.363-.243.242-.368.54-.376.89 0 .344.126.637.376.88Zm4.876 3.632c0 .266.093.493.28.68.196.18.423.27.68.27.274 0 .504-.09.692-.27a.932.932 0 0 0 .281-.68.959.959 0 0 0-.973-.972c-.253 0-.5.101-.68.281a.916.916 0 0 0-.28.691Zm-3.692 0c0 .336.121.625.363.868.25.242.547.363.891.363.336 0 .625-.121.867-.363.25-.243.375-.532.375-.868 0-.351-.125-.648-.375-.89a1.162 1.162 0 0 0-.867-.375c-.344 0-.64.125-.89.375-.243.242-.364.539-.364.89Zm0 0"/></svg>
